icons/op-print-24.svg

<svg width="24" height="24" viewBox="0 0 24 24" fill="none" xmlns="http://www.w3.org/2000/svg">
<path d="M19 10H17V8.15625L13.875 5H7V10H5L4 11V16H7V19H17V16H20V11L19 10ZM6 12H5V11H6V12ZM16 15V18H8V13H16V15ZM16 10H8V6H13V9H16V10ZM18.8438 14.75H17.9062V13.25H18.8438V14.75ZM15 15H9V14H15V15ZM15 17H9V16H15V17Z" fill="black"/>
</svg>

<svg xmlns="http://www.w3.org/2000/svg" width="24" height="24" viewBox="0 0 24 24"><path d="M19 10h-2V8.156L13.875 5H7v5H5l-1 1v5h3v3h10v-3h3v-5l-1-1ZM6 12H5v-1h1v1Zm10 3v3H8v-5h8v2Zm0-5H8V6h5v3h3v1Zm2.844 4.75h-.938v-1.5h.938v1.5ZM15 15H9v-1h6v1Zm0 2H9v-1h6v1Z"/></svg>
